Newaita-dark/.LP/32/update-notifier.svg

<?xml version="1.0" encoding="UTF-8"?>
<svg xmlns="http://www.w3.org/2000/svg" xmlns:xlink="http://www.w3.org/1999/xlink" width="32px" height="32px" viewBox="0 0 32 32" version="1.1">
<g id="surface1">
<path style=" stroke:none;fill-rule:nonzero;fill:rgb(25.882354%,25.882354%,25.882354%);fill-opacity:1;" d="M 15.875 4.21875 C 14.644531 4.21875 13.8125 7.925781 12.675781 8.394531 C 11.535156 8.867188 8.328125 6.835938 7.457031 7.707031 C 6.585938 8.578125 8.617188 11.785156 8.144531 12.925781 C 7.675781 14.0625 3.96875 14.894531 3.96875 16.125 C 3.96875 17.359375 7.675781 18.191406 8.144531 19.328125 C 8.617188 20.464844 6.585938 23.675781 7.457031 24.546875 C 8.328125 25.417969 11.535156 23.386719 12.675781 23.855469 C 13.8125 24.328125 14.644531 28.035156 15.875 28.035156 C 17.109375 28.035156 17.941406 24.328125 19.078125 23.855469 C 20.214844 23.386719 23.425781 25.417969 24.296875 24.546875 C 25.167969 23.675781 23.136719 20.464844 23.605469 19.328125 C 24.078125 18.191406 27.785156 17.359375 27.785156 16.125 C 27.785156 14.894531 24.078125 14.0625 23.605469 12.925781 C 23.136719 11.785156 25.167969 8.578125 24.296875 7.707031 C 23.425781 6.835938 20.214844 8.867188 19.078125 8.394531 C 17.941406 7.925781 17.109375 4.21875 15.875 4.21875 Z M 15.769531 10.171875 L 15.984375 10.171875 C 16.65625 10.171875 17.199219 10.761719 17.199219 11.496094 L 17.199219 16.789062 C 17.199219 17.519531 16.65625 18.109375 15.984375 18.109375 L 15.769531 18.109375 C 15.097656 18.109375 14.554688 17.519531 14.554688 16.789062 L 14.554688 11.496094 C 14.554688 10.761719 15.097656 10.171875 15.769531 10.171875 Z M 15.875 19.433594 C 16.609375 19.433594 17.199219 20.023438 17.199219 20.757812 C 17.199219 21.488281 16.609375 22.082031 15.875 22.082031 C 15.144531 22.082031 14.554688 21.488281 14.554688 20.757812 C 14.554688 20.023438 15.144531 19.433594 15.875 19.433594 Z M 15.875 19.433594 "/>
</g>
</svg>

<svg xmlns="http://www.w3.org/2000/svg" width="32pt" height="32pt" viewBox="0 0 32 32"><path d="M15.875 4.219c-1.934 0-1.441 3.367-3.23 4.11-1.786.737-3.82-1.99-5.188-.622-1.367 1.367 1.36 3.402.621 5.188-.742 1.789-4.11 1.296-4.11 3.23s3.368 1.445 4.11 3.23c.738 1.79-1.988 3.825-.621 5.192s3.402-1.36 5.188-.621c1.789.742 1.296 4.11 3.23 4.11s1.445-3.368 3.23-4.11c1.79-.738 3.825 1.988 5.192.62 1.367-1.366-1.36-3.401-.621-5.19.742-1.786 4.11-1.297 4.11-3.231s-3.368-1.441-4.11-3.23c-.738-1.786 1.988-3.82.62-5.188-1.366-1.367-3.401 1.36-5.19.621-1.786-.742-1.297-4.11-3.231-4.11zm0 5.293c.734 0 1.324.59 1.324 1.324v5.953c0 .73-.59 1.32-1.324 1.32-.73 0-1.32-.59-1.32-1.32v-5.953c0-.734.59-1.324 1.32-1.324zm0 10.582c.734 0 1.324.593 1.324 1.324a1.32 1.32 0 0 1-1.324 1.324c-.73 0-1.32-.59-1.32-1.324 0-.73.59-1.324 1.32-1.324zm0 0" fill="#424242"/></svg>
